images/throttle.svg

<svg
  width="200"
  height="200"
  viewBox="0 0 452 452"
  fill="none"
  xmlns="http://www.w3.org/2000/svg"
>
  <g id="throttle" clip-path="url(#clip0)">
    <g id="throttle_2">
      <g id="saat">
        <g id="saat elemanlari">
          <g id="cizgiler">
            <path
              id="Vector 9"
              d="M382.97 322.35C391.1 326.994 399.23 331.636 407.36 336.28C412.968 339.483 418.005 330.842 412.407 327.645C404.277 323.001 396.147 318.359 388.017 313.715C382.407 310.515 377.367 319.155 382.967 322.355L382.97 322.35Z"
              fill="black"
            />
            <path
              id="Vector 10"
              d="M39.4436 122.334C47.5736 126.978 55.7035 131.62 63.8335 136.264C69.4415 139.467 74.4786 130.826 68.8806 127.629C60.7506 122.985 52.6206 118.343 44.4906 113.699C38.8806 110.499 33.8406 119.139 39.4406 122.339L39.4436 122.334Z"
              fill="black"
            />
            <path
              id="Vector 10 2"
              d="M313.5 387.05C318.237 395.48 322.974 403.909 327.711 412.338C330.87 417.959 339.509 412.919 336.346 407.291C331.609 398.861 326.872 390.433 322.135 382.003C318.985 376.383 310.345 381.423 313.505 387.053L313.5 387.05Z"
              fill="black"
            />
            <path
              id="Vector 8"
              d="M409.73 230.66H438.328C444.776 230.66 444.776 220.66 438.328 220.66H409.73C403.28 220.66 403.28 230.66 409.73 230.66Z"
              fill="black"
            />
            <path
              id="Vector 7"
              d="M387.66 138.43C395.91 133.513 404.16 128.597 412.41 123.681C417.942 120.384 412.917 111.737 407.363 115.046C399.113 119.963 390.863 124.879 382.613 129.795C377.083 133.095 382.103 141.745 387.663 138.435L387.66 138.43Z"
              fill="black"
            />
            <path
              id="Vector 6"
              d="M322.85 69.035C327.348 60.699 331.846 52.363 336.344 44.027C339.406 38.353 330.772 33.304 327.709 38.98C323.211 47.316 318.713 55.652 314.215 63.988C311.165 69.663 319.795 74.711 322.855 69.035H322.85Z"
              fill="black"
            />
            <path
              id="Vector 5"
              d="M230.73 41.224V13.061C230.73 6.61199 220.73 6.61199 220.73 13.061V41.224C220.73 47.672 230.73 47.672 230.73 41.224Z"
              fill="black"
            />
            <path
              id="Vector 4"
              d="M41.225 220.66H13.13C6.68099 220.66 6.68099 230.66 13.13 230.66H41.225C47.673 230.66 47.673 220.66 41.225 220.66Z"
              fill="black"
            />
            <path
              id="Vector 3"
              d="M63.799 312.89L39.049 327.638C33.516 330.935 38.543 339.582 44.096 336.273L68.846 321.525C74.379 318.225 69.353 309.575 63.799 312.885V312.89Z"
              fill="black"
            />
            <path
              id="Vector 2"
              d="M130.22 382.82C125.184 390.976 120.147 399.133 115.111 407.29C111.713 412.793 120.365 417.811 123.746 412.337C128.782 404.181 133.819 396.024 138.855 387.867C142.255 382.357 133.605 377.347 130.225 382.817L130.22 382.82Z"
              fill="black"
            />
            <path
              id="Vector"
              d="M220.73 409.73V438.26C220.73 444.708 230.73 444.708 230.73 438.26V409.73C230.73 403.28 220.73 403.28 220.73 409.73Z"
              fill="black"
            />
          </g>
          <path
            id="d&#195;&#132;&#194;&#177;s yuvarlak"
            d="M5 225.66C5.141 179.942 19.247 135.419 45.554 98.02C71.194 61.572 108.214 33.567 149.994 18.232C193.463 2.27599 241.658 0.81699 286.174 13.291C329.077 25.312 367.465 50.861 395.934 85.013C455.451 156.399 462.346 260.823 414.546 340.123C391.654 378.102 357.111 408.358 316.866 426.802C274.681 446.135 226.422 451.078 181.046 441.877C91.625 423.747 21.806 349.387 7.576 259.607C5.8 248.387 5.041 237.007 5.006 225.657C4.996 222.433 -0.00400357 222.432 0.00599643 225.657C0.143996 270.414 13.366 314.282 38.261 351.497C62.391 387.571 97.09 416.136 136.928 433.253C178.401 451.072 224.806 455.641 269.078 447.226C312.133 439.043 352.147 417.619 383.518 387.145C448.485 324.044 468.786 224.995 435.108 141.125C401.848 58.274 320.368 2.46499 231.368 -0.00501052C141.748 -2.49601 57.538 50.676 20.278 131.995C6.833 161.325 0.107996 193.425 0.00799643 225.655C-0.00200357 228.875 4.998 228.875 5.008 225.655L5 225.66Z"
            fill="black"
          />
        </g>
        <g id="imlecThrottle" class="imlec">
          <path
            id="yuvarlak"
            d="M226.88 212.9H226.179C219.365 212.9 213.679 218.586 213.679 225.4C213.679 232.214 219.365 237.9 226.179 237.9H226.88C233.694 237.9 239.38 232.214 239.38 225.4C239.38 218.586 233.69 212.9 226.88 212.9Z"
            fill="black"
          />
          <path
            id="imlec"
            d="M228.378 217.222C228.114 167.885 227.85 118.548 227.586 69.2122C227.565 65.2656 227.543 61.3189 227.522 57.3714C227.506 54.1492 222.504 54.1926 222.523 57.4225C222.786 106.759 223.05 156.096 223.314 205.432C223.336 209.379 223.357 213.325 223.378 217.273C223.41 220.504 228.407 220.466 228.388 217.231L228.378 217.222Z"
            fill="black"
          />
        </g>
      </g>
    </g>
    <path
      id="0"
      d="M210.088 28.542C210.088 30.4463 209.763 31.8613 209.112 32.7871C208.462 33.7129 207.445 34.1758 206.062 34.1758C204.697 34.1758 203.687 33.7246 203.03 32.8223C202.374 31.9141 202.034 30.5605 202.011 28.7617V26.5908C202.011 24.71 202.336 23.3125 202.986 22.3984C203.637 21.4844 204.656 21.0273 206.045 21.0273C207.422 21.0273 208.436 21.4697 209.086 22.3545C209.736 23.2334 210.07 24.5928 210.088 26.4326V28.542ZM208.462 26.3184C208.462 24.9414 208.269 23.9395 207.882 23.3125C207.495 22.6797 206.883 22.3633 206.045 22.3633C205.213 22.3633 204.606 22.6768 204.226 23.3037C203.845 23.9307 203.648 24.8945 203.637 26.1953V28.7969C203.637 30.1797 203.836 31.2021 204.234 31.8643C204.639 32.5205 205.248 32.8486 206.062 32.8486C206.865 32.8486 207.46 32.5381 207.847 31.917C208.239 31.2959 208.444 30.3174 208.462 28.9814V26.3184Z"
      fill="black"
    />
    <path
      id="127"
      d="M60.4072 113H58.7725V102.163L55.4941 103.367V101.891L60.1523 100.142H60.4072V113ZM73.5557 113H65.1709V111.831L69.6006 106.909C70.2568 106.165 70.708 105.562 70.9541 105.099C71.2061 104.63 71.332 104.146 71.332 103.648C71.332 102.98 71.1299 102.433 70.7256 102.005C70.3213 101.577 69.7822 101.363 69.1084 101.363C68.2998 101.363 67.6699 101.595 67.2188 102.058C66.7734 102.515 66.5508 103.153 66.5508 103.974H64.9248C64.9248 102.796 65.3027 101.844 66.0586 101.117C66.8203 100.391 67.8369 100.027 69.1084 100.027C70.2979 100.027 71.2383 100.341 71.9297 100.968C72.6211 101.589 72.9668 102.418 72.9668 103.455C72.9668 104.715 72.1641 106.215 70.5586 107.955L67.1309 111.673H73.5557V113ZM83.54 101.117L78.2402 113H76.5352L81.8174 101.539H74.8916V100.203H83.54V101.117Z"
      fill="black"
    />
    <path
      id="Throttle"
      d="M195.77 244.789H190.285V260H188.047V244.789H182.574V242.938H195.77V244.789ZM200.129 248.855C201.09 247.676 202.34 247.086 203.879 247.086C206.559 247.086 207.91 248.598 207.934 251.621V260H205.766V251.609C205.758 250.695 205.547 250.02 205.133 249.582C204.727 249.145 204.09 248.926 203.223 248.926C202.52 248.926 201.902 249.113 201.371 249.488C200.84 249.863 200.426 250.355 200.129 250.965V260H197.961V242H200.129V248.855ZM217.309 249.266C216.98 249.211 216.625 249.184 216.242 249.184C214.82 249.184 213.855 249.789 213.348 251V260H211.18V247.32H213.289L213.324 248.785C214.035 247.652 215.043 247.086 216.348 247.086C216.77 247.086 217.09 247.141 217.309 247.25V249.266ZM218.504 253.543C218.504 252.301 218.746 251.184 219.23 250.191C219.723 249.199 220.402 248.434 221.27 247.895C222.145 247.355 223.141 247.086 224.258 247.086C225.984 247.086 227.379 247.684 228.441 248.879C229.512 250.074 230.047 251.664 230.047 253.648V253.801C230.047 255.035 229.809 256.145 229.332 257.129C228.863 258.105 228.188 258.867 227.305 259.414C226.43 259.961 225.422 260.234 224.281 260.234C222.562 260.234 221.168 259.637 220.098 258.441C219.035 257.246 218.504 255.664 218.504 253.695V253.543ZM220.684 253.801C220.684 255.207 221.008 256.336 221.656 257.188C222.312 258.039 223.188 258.465 224.281 258.465C225.383 258.465 226.258 258.035 226.906 257.176C227.555 256.309 227.879 255.098 227.879 253.543C227.879 252.152 227.547 251.027 226.883 250.168C226.227 249.301 225.352 248.867 224.258 248.867C223.188 248.867 222.324 249.293 221.668 250.145C221.012 250.996 220.684 252.215 220.684 253.801ZM235.707 244.25V247.32H238.074V248.996H235.707V256.859C235.707 257.367 235.812 257.75 236.023 258.008C236.234 258.258 236.594 258.383 237.102 258.383C237.352 258.383 237.695 258.336 238.133 258.242V260C237.562 260.156 237.008 260.234 236.469 260.234C235.5 260.234 234.77 259.941 234.277 259.355C233.785 258.77 233.539 257.938 233.539 256.859V248.996H231.23V247.32H233.539V244.25H235.707ZM243.559 244.25V247.32H245.926V248.996H243.559V256.859C243.559 257.367 243.664 257.75 243.875 258.008C244.086 258.258 244.445 258.383 244.953 258.383C245.203 258.383 245.547 258.336 245.984 258.242V260C245.414 260.156 244.859 260.234 244.32 260.234C243.352 260.234 242.621 259.941 242.129 259.355C241.637 258.77 241.391 257.938 241.391 256.859V248.996H239.082V247.32H241.391V244.25H243.559ZM250.824 260H248.656V242H250.824V260ZM259.566 260.234C257.848 260.234 256.449 259.672 255.371 258.547C254.293 257.414 253.754 255.902 253.754 254.012V253.613C253.754 252.355 253.992 251.234 254.469 250.25C254.953 249.258 255.625 248.484 256.484 247.93C257.352 247.367 258.289 247.086 259.297 247.086C260.945 247.086 262.227 247.629 263.141 248.715C264.055 249.801 264.512 251.355 264.512 253.379V254.281H255.922C255.953 255.531 256.316 256.543 257.012 257.316C257.715 258.082 258.605 258.465 259.684 258.465C260.449 258.465 261.098 258.309 261.629 257.996C262.16 257.684 262.625 257.27 263.023 256.754L264.348 257.785C263.285 259.418 261.691 260.234 259.566 260.234ZM259.297 248.867C258.422 248.867 257.688 249.188 257.094 249.828C256.5 250.461 256.133 251.352 255.992 252.5H262.344V252.336C262.281 251.234 261.984 250.383 261.453 249.781C260.922 249.172 260.203 248.867 259.297 248.867Z"
      fill="#9C9B9B"
    />
  </g>
  <defs>
    <clipPath id="clip0">
      <rect width="452" height="452" fill="white" />
    </clipPath>
  </defs>
</svg>

<svg xmlns="http://www.w3.org/2000/svg" xmlns:xlink="http://www.w3.org/1999/xlink" width="452" height="452" fill="none" xmlns:v="https://vecta.io/nano"><g clip-path="url(#A)"><g fill="#000"><use xlink:href="#B"/><path d="M39.444 122.334l24.4 13.93c5.608 3.203 10.645-5.438 5.047-8.635l-24.4-13.93c-5.6-3.2-10.65 5.44-5.05 8.64l.003-.005zM313.5 387.05l14.2 25.288c3.16 5.62 11.798.58 8.635-5.047l-14.2-25.288c-3.15-5.62-11.8-.58-8.63 5.05l-.005-.003zm96.23-156.4h28.598c6.448 0 6.448-10 0-10H409.73c-6.45 0-6.45 10 0 10zm-22.07-92.23l24.75-14.75c5.532-3.297.507-11.944-5.047-8.635l-24.75 14.75c-5.53 3.3-.5 11.95 5.05 8.64l-.003-.005zm-64.8-69.395l13.494-25.008c3.062-5.674-5.572-10.723-8.635-5.047l-13.494 25.008c-3.05 5.675 5.58 10.723 8.64 5.047h-.005zm-92.12-27.81V13.06c0-6.45-10-6.45-10 0v28.163c0 6.448 10 6.448 10 0zM41.225 220.66H13.13c-6.45 0-6.45 10 0 10h28.095c6.448 0 6.448-10 0-10zM63.8 312.9l-24.75 14.748c-5.533 3.297-.506 11.944 5.047 8.635l24.75-14.748c5.533-3.3.507-11.95-5.047-8.64v.005zm66.42 69.92l-15.1 24.47c-3.398 5.503 5.254 10.52 8.635 5.047l15.1-24.47c3.4-5.5-5.25-10.52-8.63-5.05l-.005.003zm90.5 26.9v28.53c0 6.448 10 6.448 10 0v-28.53c0-6.45-10-6.45-10 0zM5 225.66c.14-45.718 14.247-90.24 40.554-127.64 25.64-36.448 62.66-64.453 104.44-79.788 43.47-15.956 91.664-17.415 136.18-4.94 42.903 12.02 81.3 37.57 109.76 71.722 59.517 71.386 66.412 175.8 18.612 255.1-22.892 37.98-57.435 68.235-97.68 86.68-42.185 19.333-90.444 24.276-135.82 15.075-89.42-18.13-159.24-92.5-173.47-182.27C5.8 248.38 5.04 237 5.006 225.65c-.01-3.224-5-3.225-5 0 .138 44.757 13.36 88.625 38.255 125.84 24.13 36.074 58.83 64.64 98.667 81.756 41.473 17.82 87.878 22.388 132.15 13.973 43.055-8.183 83.07-29.607 114.44-60.08 64.967-63.1 85.268-162.15 51.6-246.02-33.26-82.85-114.74-138.66-203.74-141.13-89.62-2.5-173.83 50.68-211.1 132-13.445 29.33-20.17 61.43-20.27 93.66-.01 3.22 5 3.22 5 0L5 225.66zm221.88-12.76h-.7c-6.814 0-12.5 5.686-12.5 12.5s5.686 12.5 12.5 12.5h.7c6.814 0 12.5-5.686 12.5-12.5s-5.7-12.5-12.5-12.5z"/><path d="M228.378 217.222l-.856-159.85c-.016-3.222-5.018-3.18-5 .05l.855 159.85c.032 3.23 5.03 3.193 5-.042l-.01-.01zm-18.3-188.68c0 1.904-.325 3.32-.976 4.245s-1.667 1.4-3.05 1.4c-1.365 0-2.375-.45-3.032-1.354s-.996-2.262-1.02-4.06v-2.17c0-1.88.325-3.278.975-4.192s1.67-1.37 3.06-1.37c1.377 0 2.4.442 3.04 1.327.65.88.984 2.238 1.002 4.078v2.1zm-1.626-2.224c0-1.377-.193-2.38-.58-3.006-.387-.633-1-.95-1.837-.95s-1.44.314-1.82.94-.578 1.6-.6 2.892v2.602c0 1.383.2 2.405.597 3.067.405.656 1.014.984 1.828.984.803 0 1.398-.3 1.785-.932s.597-1.6.615-2.936v-2.663zM60.407 113h-1.635v-10.837l-3.278 1.204v-1.476l4.658-1.75h.255V113zm13.148 0H65.17v-1.17l4.43-4.922c.656-.744 1.107-1.347 1.353-1.8a3.03 3.03 0 0 0 .378-1.451c0-.668-.202-1.215-.606-1.643s-.943-.642-1.617-.642c-.8 0-1.44.232-1.9.695-.445.457-.668 1.095-.668 1.916h-1.626c0-1.178.378-2.13 1.134-2.857.762-.726 1.778-1.1 3.05-1.1 1.2 0 2.13.314 2.82.94.7.62 1.037 1.45 1.037 2.487 0 1.26-.803 2.76-2.408 4.5l-3.428 3.718h6.425V113zm9.984-11.883L78.24 113h-1.705l5.282-11.46H74.89v-1.336h8.648v.914z"/></g><path d="M195.77 244.79h-5.485V260h-2.238v-15.21h-5.473v-1.85h13.196v1.85zm4.36 4.066c.96-1.18 2.21-1.77 3.75-1.77 2.68 0 4.03 1.512 4.055 4.535V260h-2.168v-8.39c-.008-.914-.22-1.59-.633-2.027-.406-.437-1.043-.656-1.9-.656-.703 0-1.32.187-1.852.562a3.82 3.82 0 0 0-1.242 1.477V260h-2.168v-18h2.168v6.855zm17.18.41c-.33-.055-.684-.082-1.067-.082-1.422 0-2.387.605-2.894 1.816v9h-2.168v-12.68h2.11l.035 1.465c.71-1.133 1.72-1.7 3.024-1.7.422 0 .742.055.96.164v2.016zm1.195 4.277c0-1.242.242-2.36.726-3.352.493-.992 1.172-1.757 2.04-2.296.875-.54 1.87-.81 2.988-.81 1.726 0 3.12.598 4.183 1.793 1.07 1.195 1.606 2.785 1.606 4.77v.153c0 1.234-.238 2.344-.715 3.328-.47.976-1.144 1.738-2.027 2.285-.875.547-1.883.82-3.024.82-1.72 0-3.113-.597-4.183-1.793-1.063-1.195-1.594-2.777-1.594-4.746v-.152zm2.18.258c0 1.406.324 2.535.972 3.387.656.85 1.532 1.277 2.625 1.277 1.102 0 1.977-.43 2.625-1.29.65-.867.973-2.078.973-3.633 0-1.39-.332-2.516-.996-3.375-.656-.867-1.53-1.3-2.625-1.3a3.11 3.11 0 0 0-2.59 1.278c-.656.85-.984 2.07-.984 3.656zm15.023-9.55v3.07h2.367v1.676h-2.367v7.863c0 .508.105.89.316 1.15.21.25.57.375 1.08.375.25 0 .593-.047 1.03-.14V260c-.57.156-1.125.234-1.664.234-.97 0-1.7-.293-2.192-.88s-.738-1.417-.738-2.496v-7.863h-2.31v-1.676h2.31v-3.07h2.168zm7.852 0v3.07h2.367v1.676h-2.367v7.863c0 .508.105.89.316 1.15.21.25.57.375 1.078.375.25 0 .594-.047 1.03-.14V260c-.57.156-1.125.234-1.664.234-.968 0-1.7-.293-2.19-.88s-.738-1.417-.738-2.496v-7.863h-2.31v-1.676h2.31v-3.07h2.168zm7.265 15.75h-2.168v-18h2.168v18zm8.742.234c-1.718 0-3.117-.562-4.195-1.687-1.078-1.133-1.617-2.645-1.617-4.535v-.4c0-1.258.238-2.38.715-3.363.484-.992 1.156-1.766 2.015-2.32a5.07 5.07 0 0 1 2.813-.844c1.648 0 2.93.543 3.844 1.63s1.37 2.64 1.37 4.664v.902h-8.6c.03 1.25.394 2.262 1.1 3.035.703.766 1.593 1.15 2.672 1.15.765 0 1.414-.156 1.945-.47a4.87 4.87 0 0 0 1.394-1.242l1.325 1.03c-1.063 1.633-2.657 2.45-4.782 2.45zm-.27-11.367c-.875 0-1.61.32-2.203.96-.594.633-.96 1.524-1.102 2.672h6.352v-.164c-.063-1.102-.36-1.953-.89-2.555-.53-.61-1.25-.914-2.156-.914z" fill="#9c9b9b"/></g><defs><clipPath id="A"><path fill="#fff" d="M0 0h452v452H0z"/></clipPath><path id="B" d="M382.97 322.35l24.4 13.93c5.608 3.203 10.645-5.438 5.047-8.635l-24.4-13.93c-5.6-3.2-10.65 5.44-5.05 8.64l.003-.005z"/></defs></svg>
